app/assets/img/shared/nav-menu03.svg

<svg width="59" height="29" viewBox="0 0 59 29" fill="none" xmlns="http://www.w3.org/2000/svg">
<path d="M0.8 23V0.544999H5.45V9.095C6.03 8.525 6.685 8.07 7.415 7.73C8.155 7.38 9.02 7.205 10.01 7.205C10.82 7.205 11.57 7.38 12.26 7.73C12.95 8.08 13.545 8.595 14.045 9.275C14.545 9.945 14.935 10.77 15.215 11.75C15.505 12.73 15.65 13.845 15.65 15.095C15.65 16.265 15.485 17.345 15.155 18.335C14.835 19.325 14.38 20.185 13.79 20.915C13.21 21.645 12.51 22.215 11.69 22.625C10.88 23.035 9.98 23.24 8.99 23.24C8.53 23.24 8.115 23.195 7.745 23.105C7.385 23.015 7.05 22.89 6.74 22.73C6.44 22.56 6.16 22.36 5.9 22.13C5.65 21.9 5.405 21.65 5.165 21.38L5 22.16C4.93 22.48 4.8 22.7 4.61 22.82C4.43 22.94 4.19 23 3.89 23H0.8ZM8.39 10.7C8.05 10.7 7.74 10.735 7.46 10.805C7.19 10.865 6.935 10.955 6.695 11.075C6.465 11.195 6.25 11.35 6.05 11.54C5.85 11.72 5.65 11.93 5.45 12.17V18.77C5.8 19.16 6.18 19.435 6.59 19.595C7 19.745 7.43 19.82 7.88 19.82C8.31 19.82 8.705 19.735 9.065 19.565C9.425 19.395 9.735 19.125 9.995 18.755C10.265 18.375 10.475 17.885 10.625 17.285C10.775 16.685 10.85 15.955 10.85 15.095C10.85 14.275 10.79 13.585 10.67 13.025C10.55 12.465 10.38 12.015 10.16 11.675C9.95 11.325 9.695 11.075 9.395 10.925C9.095 10.775 8.76 10.7 8.39 10.7ZM23.3023 0.544999V23H18.6523V0.544999H23.3023ZM34.287 7.205C35.467 7.205 36.542 7.39 37.512 7.76C38.482 8.13 39.312 8.66 40.002 9.35C40.702 10.04 41.242 10.88 41.622 11.87C42.012 12.85 42.207 13.955 42.207 15.185C42.207 16.425 42.012 17.545 41.622 18.545C41.242 19.535 40.702 20.38 40.002 21.08C39.312 21.77 38.482 22.305 37.512 22.685C36.542 23.055 35.467 23.24 34.287 23.24C33.097 23.24 32.012 23.055 31.032 22.685C30.062 22.305 29.222 21.77 28.512 21.08C27.812 20.38 27.267 19.535 26.877 18.545C26.497 17.545 26.307 16.425 26.307 15.185C26.307 13.955 26.497 12.85 26.877 11.87C27.267 10.88 27.812 10.04 28.512 9.35C29.222 8.66 30.062 8.13 31.032 7.76C32.012 7.39 33.097 7.205 34.287 7.205ZM34.287 19.79C35.357 19.79 36.142 19.415 36.642 18.665C37.152 17.905 37.407 16.755 37.407 15.215C37.407 13.675 37.152 12.53 36.642 11.78C36.142 11.03 35.357 10.655 34.287 10.655C33.187 10.655 32.382 11.03 31.872 11.78C31.362 12.53 31.107 13.675 31.107 15.215C31.107 16.755 31.362 17.905 31.872 18.665C32.382 19.415 33.187 19.79 34.287 19.79ZM50.5494 7.175C51.2094 7.175 51.8294 7.24 52.4094 7.37C52.9994 7.5 53.5444 7.685 54.0444 7.925H58.7394V9.62C58.7394 9.88 58.6644 10.085 58.5144 10.235C58.3744 10.385 58.1294 10.5 57.7794 10.58L56.6394 10.835C56.7794 11.285 56.8494 11.75 56.8494 12.23C56.8494 13.01 56.6844 13.71 56.3544 14.33C56.0344 14.95 55.5894 15.48 55.0194 15.92C54.4594 16.35 53.7944 16.685 53.0244 16.925C52.2544 17.155 51.4294 17.27 50.5494 17.27C50.0594 17.27 49.5994 17.24 49.1694 17.18C48.8294 17.38 48.6594 17.61 48.6594 17.87C48.6594 18.13 48.7944 18.32 49.0644 18.44C49.3444 18.55 49.7094 18.63 50.1594 18.68C50.6094 18.72 51.1244 18.75 51.7044 18.77C52.2844 18.78 52.8744 18.815 53.4744 18.875C54.0744 18.925 54.6644 19.015 55.2444 19.145C55.8244 19.275 56.3394 19.485 56.7894 19.775C57.2394 20.065 57.5994 20.455 57.8694 20.945C58.1494 21.425 58.2894 22.04 58.2894 22.79C58.2894 23.49 58.1194 24.175 57.7794 24.845C57.4394 25.515 56.9394 26.11 56.2794 26.63C55.6194 27.15 54.8094 27.565 53.8494 27.875C52.8894 28.195 51.7894 28.355 50.5494 28.355C49.3294 28.355 48.2744 28.24 47.3844 28.01C46.5044 27.78 45.7694 27.475 45.1794 27.095C44.5994 26.725 44.1694 26.295 43.8894 25.805C43.6094 25.315 43.4694 24.805 43.4694 24.275C43.4694 23.585 43.6794 23.005 44.0994 22.535C44.5194 22.055 45.0944 21.68 45.8244 21.41C45.4744 21.18 45.1944 20.885 44.9844 20.525C44.7744 20.165 44.6694 19.71 44.6694 19.16C44.6694 18.93 44.7094 18.69 44.7894 18.44C44.8694 18.18 44.9944 17.93 45.1644 17.69C45.3344 17.45 45.5494 17.22 45.8094 17C46.0694 16.78 46.3794 16.585 46.7394 16.415C45.9294 15.985 45.2894 15.415 44.8194 14.705C44.3594 13.995 44.1294 13.17 44.1294 12.23C44.1294 11.45 44.2944 10.75 44.6244 10.13C44.9544 9.5 45.4044 8.97 45.9744 8.54C46.5544 8.1 47.2344 7.765 48.0144 7.535C48.7944 7.295 49.6394 7.175 50.5494 7.175ZM53.9994 23.57C53.9994 23.32 53.9194 23.12 53.7594 22.97C53.6094 22.82 53.3994 22.7 53.1294 22.61C52.8694 22.52 52.5594 22.455 52.1994 22.415C51.8494 22.375 51.4694 22.345 51.0594 22.325C50.6494 22.305 50.2244 22.29 49.7844 22.28C49.3444 22.26 48.9094 22.225 48.4794 22.175C48.1894 22.375 47.9494 22.6 47.7594 22.85C47.5794 23.09 47.4894 23.365 47.4894 23.675C47.4894 23.895 47.5344 24.095 47.6244 24.275C47.7244 24.455 47.8944 24.61 48.1344 24.74C48.3744 24.87 48.6944 24.97 49.0944 25.04C49.5044 25.12 50.0194 25.16 50.6394 25.16C51.3094 25.16 51.8594 25.12 52.2894 25.04C52.7194 24.96 53.0594 24.85 53.3094 24.71C53.5694 24.57 53.7494 24.4 53.8494 24.2C53.9494 24.01 53.9994 23.8 53.9994 23.57ZM50.5494 14.405C51.3194 14.405 51.8744 14.215 52.2144 13.835C52.5644 13.445 52.7394 12.945 52.7394 12.335C52.7394 11.705 52.5644 11.21 52.2144 10.85C51.8744 10.49 51.3194 10.31 50.5494 10.31C49.7794 10.31 49.2194 10.49 48.8694 10.85C48.5294 11.21 48.3594 11.705 48.3594 12.335C48.3594 12.635 48.3994 12.91 48.4794 13.16C48.5694 13.41 48.7044 13.63 48.8844 13.82C49.0644 14 49.2894 14.145 49.5594 14.255C49.8394 14.355 50.1694 14.405 50.5494 14.405Z" fill="#121111"/>
</svg>

<svg fill="none" height="29" viewBox="0 0 59 29" width="59" xmlns="http://www.w3.org/2000/svg"><path d="m.8 23v-22.455001h4.65v8.550001c.58-.57 1.235-1.025 1.965-1.365.74-.35 1.605-.525 2.595-.525.81 0 1.56.175 2.25.525s1.285.865 1.785 1.545c.5.67.89 1.495 1.17 2.475.29.98.435 2.095.435 3.345 0 1.17-.165 2.25-.495 3.24-.32.99-.775 1.85-1.365 2.58-.58.73-1.28 1.3-2.1 1.71-.81.41-1.71.615-2.7.615-.46 0-.875-.045-1.245-.135-.36-.09-.695-.215-1.005-.375-.3-.17-.58-.37-.84-.6-.25-.23-.495-.48-.735-.75l-.165.78c-.07.32-.2.54-.39.66-.18.12-.42.18-.72.18zm7.59-12.3c-.34 0-.65.035-.93.105-.27.06-.525.15-.765.27-.23.12-.445.275-.645.465-.2.18-.4.39-.6.63v6.6c.35.39.73.665 1.14.825.41.15.84.225 1.29.225.43 0 .825-.085 1.185-.255s.67-.44.93-.81c.27-.38.48-.87.63-1.47s.225-1.33.225-2.19c0-.82-.06-1.51-.18-2.07s-.29-1.01-.51-1.35c-.21-.35-.465-.6-.765-.75s-.635-.225-1.005-.225zm14.9123-10.155001v22.455001h-4.65v-22.455001zm10.9847 6.660001c1.18 0 2.255.185 3.225.555s1.8.9 2.49 1.59c.7.69 1.24 1.53 1.62 2.52.39.98.585 2.085.585 3.315 0 1.24-.195 2.36-.585 3.36-.38.99-.92 1.835-1.62 2.535-.69.69-1.52 1.225-2.49 1.605-.97.37-2.045.555-3.225.555-1.19 0-2.275-.185-3.255-.555-.97-.38-1.81-.915-2.52-1.605-.7-.7-1.245-1.545-1.635-2.535-.38-1-.57-2.12-.57-3.36 0-1.23.19-2.335.57-3.315.39-.99.935-1.83 1.635-2.52.71-.69 1.55-1.22 2.52-1.59.98-.37 2.065-.555 3.255-.555zm0 12.585c1.07 0 1.855-.375 2.355-1.125.51-.76.765-1.91.765-3.45s-.255-2.685-.765-3.435c-.5-.75-1.285-1.125-2.355-1.125-1.1 0-1.905.375-2.415 1.125s-.765 1.895-.765 3.435.255 2.69.765 3.45c.51.75 1.315 1.125 2.415 1.125zm16.2624-12.615c.66 0 1.28.065 1.86.195.59.13 1.135.315 1.635.555h4.695v1.695c0 .26-.075.465-.225.615-.14.15-.385.265-.735.345l-1.14.255c.14.45.21.915.21 1.395 0 .78-.165 1.48-.495 2.1-.32.62-.765 1.15-1.335 1.59-.56.43-1.225.765-1.995 1.005-.77.23-1.595.345-2.475.345-.49 0-.95-.03-1.38-.09-.34.2-.51.43-.51.69s.135.45.405.57c.28.11.645.19 1.095.24.45.04.965.07 1.545.09.58.01 1.17.045 1.77.105.6.05 1.19.14 1.77.27s1.095.34 1.545.63.81.68 1.08 1.17c.28.48.42 1.095.42 1.845 0 .7-.17 1.385-.51 2.055s-.84 1.265-1.5 1.785-1.47.935-2.43 1.245c-.96.32-2.06.48-3.3.48-1.22 0-2.275-.115-3.165-.345-.88-.23-1.615-.535-2.205-.915-.58-.37-1.01-.8-1.29-1.29s-.42-1-.42-1.53c0-.69.21-1.27.63-1.74.42-.48.995-.855 1.725-1.125-.35-.23-.63-.525-.84-.885s-.315-.815-.315-1.365c0-.23.04-.47.12-.72.08-.26.205-.51.375-.75s.385-.47.645-.69.57-.415.93-.585c-.81-.43-1.45-1-1.92-1.71-.46-.71-.69-1.535-.69-2.475 0-.78.165-1.48.495-2.1.33-.63.78-1.16 1.35-1.59.58-.44 1.26-.775 2.04-1.005.78-.24 1.625-.36 2.535-.36zm3.45 16.395c0-.25-.08-.45-.24-.6-.15-.15-.36-.27-.63-.36-.26-.09-.57-.155-.93-.195-.35-.04-.73-.07-1.14-.09s-.835-.035-1.275-.045c-.44-.02-.875-.055-1.305-.105-.29.2-.53.425-.72.675-.18.24-.27.515-.27.825 0 .22.045.42.135.6.1.18.27.335.51.465s.56.23.96.3c.41.08.925.12 1.545.12.67 0 1.22-.04 1.65-.12s.77-.19 1.02-.33c.26-.14.44-.31.54-.51.1-.19.15-.4.15-.63zm-3.45-9.165c.77 0 1.325-.19 1.665-.57.35-.39.525-.89.525-1.5 0-.63-.175-1.125-.525-1.485-.34-.36-.895-.54-1.665-.54s-1.33.18-1.68.54c-.34.36-.51.855-.51 1.485 0 .3.04.575.12.825.09.25.225.47.405.66.18.18.405.325.675.435.28.1.61.15.99.15z" fill="#121111"/></svg>
